X: 1
T: the Oyster Girl
B: Pinewoods Scottish Music Collection [Alternates] (1986)
R: jig
Z: 2006 John Chambers <jc:trillian.mit.edu>
M: 6/8
L: 1/8
K: G
B/c/ \
| "G"ded B2G | "D7"A2F D3  | "G"GDG "Em"BGB | "Am"d2c "D7"A3 \
| "G"ded Bdg | "Am"f2e c2e | "G"d2B "D7"cBA |  "G"G3      G2 :|
|: z \
| "G"Bcd Bcd |  "C"e2c "Am"e3 | "D7"ABc     ABc | "G"d2B d3 \
| "G"ded Bdg | "Am"f2e    c2e |  "G"d2B "D7"cBA | "G"G3  G2 :|
